X: 305
T: Shier sheng
L: 1/8
M: 2/4
K: A
e de2 [I:setbarnb 1]| 
zf2e | 
B2e2 | 
c BA2 | 
A Be2 | 
c BA2 | 
B2A F | 
E4 | 
A eA2 | 
zB2e | 
e2A2 | 
A FE2 | 
A2B2 | 
A FE2 | 
A FA2 | 
G FE2 |]

@@@ Tune index: 9179
